wp-content/themes/unity-2017/dist/images/support-icon.svg

<svg xmlns="http://www.w3.org/2000/svg" width="110" height="91" viewBox="0 0 110 91">
  <defs>
    <linearGradient id="a" x1="-4079.724%" x2="751.478%" y1="-1996.845%" y2="1427.892%">
      <stop stop-color="#F8B734" offset="0%"/>
      <stop stop-color="#F29227" offset="100%"/>
    </linearGradient>
    <linearGradient id="b" x1="0%" y1="0%" y2="88.612%">
      <stop stop-color="#FAC338" offset="0%"/>
      <stop stop-color="#F29027" offset="100%"/>
    </linearGradient>
    <linearGradient id="c" x1="-61.866%" x2="1235.075%" y1="-63.39%" y2="876.193%">
      <stop stop-color="#FAC338" offset="0%"/>
      <stop stop-color="#F29027" offset="100%"/>
    </linearGradient>
  </defs>
  <g fill="none">
    <rect width="3.223" height="3.263" x="101" y="43" fill="url(#a)"/>
    <polygon fill="url(#a)" points="104.086 49 100.863 49 100.863 69.3 97 69.3 97 72.522 104.086 72.522"/>
    <polygon fill="url(#a)" points="17.233 69.394 8.223 69.394 8.223 57 5 57 5 72.617 17.233 72.617"/>
    <path fill="url(#b)" d="M0,0 L0,17.4145898 L0,78.5225977 L20.3336719,78.5225977 L32.3737305,90.5626563 L44.4137891,78.5225977 L69.2097656,78.5225977 L76.3937109,85.706543 C77.7556055,87.0684375 79.5516992,87.8369336 81.4515625,87.8702344 C81.4947461,87.8710938 81.5377148,87.8715234 81.5811133,87.8715234 C83.4534766,87.8713086 85.1992969,87.154375 86.5094141,85.8442578 C88.0365234,84.3169336 88.7545312,82.1899805 88.4793164,80.0091016 C88.415293,79.5022852 88.2964844,79.0038477 88.1276172,78.5225977 L110,78.5225977 L110,17.4145898 L110,0 L0,0 Z M43.5608594,74.8176172 L32.3735156,86.0051758 L24.5302148,78.1616602 L46.6891992,56.0024609 L54.5325,63.8457617 L43.5608594,74.8176172 Z M47.6362305,75.2999414 L56.8113477,66.1248242 L65.9864648,75.2999414 L47.6362305,75.2999414 Z M84.2299219,83.5654102 C83.5136328,84.2821289 82.5461914,84.6731445 81.5078516,84.6480078 C80.4475977,84.6293164 79.4404102,84.1959766 78.6723438,83.4274805 L37.2637891,42.0193555 L36.3605859,42.2668555 C36.1416602,42.3270117 35.9216602,42.3794336 35.7010156,42.4243359 C33.2734961,42.9180469 30.7641211,42.4980273 28.6507031,41.2914648 C27.882207,40.8527539 27.1661328,40.3098437 26.5252539,39.6691797 C24.9691406,38.1132812 23.9995508,36.1438086 23.6777148,34.0664844 C23.5314062,33.1222461 23.5189453,32.1558789 23.6463477,31.1957422 L29.9825195,37.5321289 L36.832168,35.6748047 L38.689707,28.8249414 L32.3533203,22.4887695 C32.4929687,22.470293 32.632832,22.4580469 32.7726953,22.4453711 C33.0174023,22.4232422 33.2623242,22.4069141 33.5068164,22.402832 C36.1964453,22.3568555 38.8463281,23.3872461 40.8267578,25.3676758 C41.0143164,25.5552344 41.1926367,25.7500977 41.3634375,25.950332 C43.65625,28.64125 44.3963867,32.4104687 43.2476172,35.7863086 C43.0499609,36.2000977 41.9576953,38.4011719 40.3641992,39.9944531 L42.6430469,42.2735156 C43.6783789,41.2381836 44.5225,40.0365625 45.130293,39.0461328 L58.309668,52.2255078 C58.3098828,52.2257227 58.3100977,52.2259375 58.3103125,52.2261523 L84.0694336,77.9852734 C84.084043,78.0013867 84.0988672,78.0172852 84.1143359,78.0331836 L84.1396875,78.0593945 C84.7739062,78.7140234 85.1694336,79.5252734 85.2813672,80.4125781 C85.4311133,81.5983008 85.047832,82.7477148 84.2299219,83.5654102 Z M106.777344,75.2999414 L85.9417969,75.2999414 L61.7282617,51.0864062 L80.4931445,32.3210938 L82.8886523,34.7166016 L90.3950781,27.2101758 L83.325,20.1398828 L75.8185742,27.6463086 L78.2145117,30.0422461 C72.1273437,36.1317773 62.6810937,45.5803906 59.4504883,48.8086328 L46.5695312,35.9276758 C47.7625586,31.3820117 46.4563086,26.4395313 43.1058203,23.0888281 C42.955,22.9380078 42.8003125,22.7929883 42.6436914,22.6505469 C42.3066016,22.34375 41.9574805,22.055 41.5961133,21.7877344 C37.8919922,19.0471875 32.9993555,18.3914844 28.6386719,20.168457 L26.3914062,21.0841211 L35.0908594,29.7833594 L34.2054883,33.0479102 L30.9411523,33.9330664 L22.2414844,25.2336133 L21.3258203,27.4808789 C21.2624414,27.6366406 21.2020703,27.7930469 21.144707,27.9500977 C19.3694531,32.8175977 20.5605469,38.262168 24.2464062,41.9480273 C24.4436328,42.1452539 24.6460156,42.3351758 24.8535547,42.5182227 C25.0404687,42.6830078 25.2321094,42.8411328 25.4269727,42.9943164 C25.4841211,43.0392188 25.5419141,43.0834766 25.599707,43.1273047 C25.8891016,43.3473047 26.1858008,43.5554883 26.4904492,43.7499219 C26.5692969,43.8001953 26.6490039,43.8485352 26.7287109,43.8970898 C26.7680273,43.9211523 26.8069141,43.9460742 26.8466602,43.969707 C26.8730859,43.9853906 26.8999414,44 26.926582,44.0156836 C27.0692383,44.099043 27.2131836,44.1793945 27.3586328,44.2573828 C30.0607227,45.7069336 33.2187109,46.2023633 36.2815234,45.595 L44.4105664,53.724043 L22.8344531,75.2999414 L3.22265625,75.2999414 L3.22265625,17.4145898 L106.777344,17.4145898 L106.777344,75.2999414 Z M80.3760547,27.6463086 L83.3252148,24.6971484 L85.8378125,27.2099609 L82.8886523,30.1591211 L80.3760547,27.6463086 Z M106.777344,14.1919336 L3.22265625,14.1919336 L3.22265625,3.22265625 L106.777344,3.22265625 L106.777344,14.1919336 Z"/>
    <path fill="url(#c)" d="M9.28505859 12.5699023C11.6479102 12.5699023 13.5701172 10.6476953 13.5701172 8.28484375 13.5701172 5.92220703 11.6479102 4 9.28505859 4 6.92220703 4 5 5.92220703 5 8.28484375 5 10.6476953 6.92220703 12.5699023 9.28505859 12.5699023zM9.28505859 7.22287109C9.8709375 7.22287109 10.3474609 7.69939453 10.3474609 8.28505859 10.3474609 8.87072266 9.8709375 9.34746094 9.28505859 9.34746094 8.69917969 9.34746094 8.22265625 8.87072266 8.22265625 8.28505859 8.22265625 7.69917969 8.69917969 7.22287109 9.28505859 7.22287109zM22.2850586 12.5699023C24.6479102 12.5699023 26.5701172 10.6476953 26.5701172 8.28484375 26.570332 5.92220703 24.6479102 4 22.2850586 4 19.922207 4 18 5.92220703 18 8.28484375 18 10.6476953 19.922207 12.5699023 22.2850586 12.5699023zM22.2850586 7.22287109C22.8709375 7.22287109 23.3474609 7.69939453 23.3474609 8.28505859 23.3476758 8.87072266 22.8711523 9.34746094 22.2850586 9.34746094 21.6991797 9.34746094 21.2226562 8.87072266 21.2226562 8.28505859 21.2226562 7.69917969 21.6991797 7.22287109 22.2850586 7.22287109zM34.2850586 12.5699023C36.6479102 12.5699023 38.5701172 10.6476953 38.5701172 8.28484375 38.570332 5.92220703 36.6479102 4 34.2850586 4 31.922207 4 30 5.92220703 30 8.28484375 30 10.6476953 31.922207 12.5699023 34.2850586 12.5699023zM34.2850586 7.22287109C34.8709375 7.22287109 35.3474609 7.69939453 35.3474609 8.28505859 35.3476758 8.87072266 34.8709375 9.34746094 34.2850586 9.34746094 33.6991797 9.34746094 33.2226562 8.87072266 33.2226562 8.28505859 33.2226562 7.69917969 33.6991797 7.22287109 34.2850586 7.22287109zM70.2850586 12.5699023L97.9131055 12.5699023C100.275957 12.5699023 102.198164 10.6476953 102.198164 8.28484375 102.198164 7.6334375 102.055293 7.00716797 101.773633 6.42429688 101.063145 4.95175781 99.5478516 4 97.9128906 4L70.2850586 4C67.922207 4 66 5.92220703 66 8.28484375 66 10.6476953 67.922207 12.5699023 70.2850586 12.5699023zM70.2850586 7.22287109L97.9131055 7.22287109C98.3249609 7.22287109 98.6921289 7.45339844 98.8715234 7.82550781 98.9404883 7.96837891 98.9755078 8.12306641 98.9755078 8.28527344 98.9755078 8.87072266 98.4987695 9.34746094 97.9128906 9.34746094L70.2850586 9.34746094C69.6991797 9.34746094 69.2226562 8.87072266 69.2226562 8.28505859 69.2226562 7.69917969 69.6993945 7.22287109 70.2850586 7.22287109z"/>
    <rect width="3.223" height="2.854" x="40.537" y="68.721" fill="url(#c)" transform="rotate(-134.992 42.148 70.148)"/>
    <polygon fill="url(#c)" points="32.345 78.067 31.279 77.001 29 79.28 32.345 82.625 39.691 75.279 37.412 73"/>
  </g>
</svg>

<svg xmlns="http://www.w3.org/2000/svg" width="110" height="91" viewBox="0 0 110 91">
<defs>
<linearGradient id="n" x1="-4079.7%" x2="751.48%" y1="-1947%" y2="1394.3%">
<stop stop-color="#F8B734" offset="0"/>
<stop stop-color="#F29227" offset="1"/>
</linearGradient>
<linearGradient id="m" x1="-4079.7%" x2="751.48%" y1="-135.75%" y2="175.05%">
<stop stop-color="#F8B734" offset="0"/>
<stop stop-color="#F29227" offset="1"/>
</linearGradient>
<linearGradient id="l" x1="-4079.7%" x2="751.48%" y1="-1205.9%" y2="895.45%">
<stop stop-color="#F8B734" offset="0"/>
<stop stop-color="#F29227" offset="1"/>
</linearGradient>
<linearGradient id="k" x1="16.109%" x2="83.891%" y2="88.612%">
<stop stop-color="#FAC338" offset="0"/>
<stop stop-color="#F29027" offset="1"/>
</linearGradient>
<linearGradient id="j" x1="49.13%" x2="59.213%" y1="-63.39%" y2="876.19%">
<stop stop-color="#FAC338" offset="0"/>
<stop stop-color="#F29027" offset="1"/>
</linearGradient>
<linearGradient id="i" x1="-37.717%" x2="979.25%" y1="-63.39%" y2="876.19%">
<stop stop-color="#FAC338" offset="0"/>
<stop stop-color="#F29027" offset="1"/>
</linearGradient>
<linearGradient id="h" x1="-40.67%" x2="1010.5%" y1="-63.39%" y2="876.19%">
<stop stop-color="#FAC338" offset="0"/>
<stop stop-color="#F29027" offset="1"/>
</linearGradient>
</defs>
<rect x="101" y="43" width="3.223" height="3.263" fill="url(#n)"/>
<polygon points="104.09 49 100.86 49 100.86 69.3 97 69.3 97 72.522 104.09 72.522" fill="url(#m)"/>
<polygon points="17.233 69.394 8.223 69.394 8.223 57 5 57 5 72.617 17.233 72.617" fill="url(#l)"/>
<path d="m0 0v17.415 61.108h20.334l12.04 12.04 12.04-12.04h24.796l7.1839 7.1839c1.3619 1.3619 3.158 2.1304 5.0579 2.1637 0.043184 8.594e-4 0.086152 0.001289 0.12955 0.001289 1.8724-2.148e-4 3.6182-0.71715 4.9283-2.0273 1.5271-1.5273 2.2451-3.6543 1.9699-5.8352-0.064023-0.50682-0.18283-1.0053-0.3517-1.4865h21.872v-61.108-17.415h-110zm43.561 74.818l-11.187 11.188-7.8433-7.8435 22.159-22.159 7.8433 7.8433-10.972 10.972zm4.0754 0.48232l9.1751-9.1751 9.1751 9.1751h-18.35zm36.594 8.2655c-0.71629 0.71672-1.6837 1.1077-2.7221 1.0826-1.0603-0.018691-2.0674-0.45203-2.8355-1.2205l-41.409-41.408-0.9032 0.2475c-0.21893 0.060156-0.43893 0.11258-0.65957 0.15748-2.4275 0.49371-4.9369 0.073691-7.0503-1.1329-0.7685-0.43871-1.4846-0.98162-2.1254-1.6223-1.5561-1.5559-2.5257-3.5254-2.8475-5.6027-0.14631-0.94424-0.15877-1.9106-0.031367-2.8707l6.3362 6.3364 6.8496-1.8573 1.8575-6.8499-6.3364-6.3362c0.13965-0.018476 0.27951-0.030723 0.41938-0.043398 0.24471-0.022129 0.48963-0.038457 0.73412-0.042539 2.6896-0.045976 5.3395 0.98441 7.3199 2.9648 0.18756 0.18756 0.36588 0.38242 0.53668 0.58266 2.2928 2.6909 3.0329 6.4601 1.8842 9.836-0.19766 0.41379-1.2899 2.6149-2.8834 4.2081l2.2788 2.2791c1.0353-1.0353 1.8795-2.237 2.4872-3.2274l13.179 13.179c2.148e-4 2.149e-4 4.297e-4 4.297e-4 6.445e-4 6.445e-4l25.759 25.759c0.014609 0.016113 0.029434 0.032012 0.044902 0.04791l0.025352 0.026211c0.63422 0.65463 1.0297 1.4659 1.1417 2.3532 0.14975 1.1857-0.23354 2.3351-1.0514 3.1528zm22.547-8.2655h-20.836l-24.214-24.214 18.765-18.765 2.3955 2.3955 7.5064-7.5064-7.0701-7.0703-7.5064 7.5064 2.3959 2.3959c-6.0872 6.0895-15.533 15.538-18.764 18.766l-12.881-12.881c1.193-4.5457-0.11322-9.4881-3.4637-12.839-0.15082-0.15082-0.30551-0.29584-0.46213-0.43828-0.33709-0.3068-0.68621-0.59555-1.0476-0.86281-3.7041-2.7405-8.5968-3.3962-12.957-1.6193l-2.2473 0.91566 8.6995 8.6992-0.88537 3.2646-3.2643 0.88516-8.6997-8.6995-0.91566 2.2473c-0.063379 0.15576-0.12375 0.31217-0.18111 0.46922-1.7753 4.8675-0.58416 10.312 3.1017 13.998 0.19723 0.19723 0.39961 0.38715 0.60715 0.5702 0.18691 0.16479 0.37855 0.32291 0.57342 0.47609 0.057148 0.044902 0.11494 0.08916 0.17273 0.13299 0.28939 0.22 0.58609 0.42818 0.89074 0.62262 0.078848 0.050273 0.15855 0.098613 0.23826 0.14717 0.039316 0.024062 0.078203 0.048984 0.11795 0.072617 0.026426 0.015684 0.053281 0.030293 0.079922 0.045977 0.14266 0.083359 0.2866 0.16371 0.43205 0.2417 2.7021 1.4496 5.8601 1.945 8.9229 1.3376l8.129 8.129-21.576 21.576h-19.612v-57.885h103.55v57.885zm-26.401-47.654l2.9492-2.9492 2.5126 2.5128-2.9492 2.9492-2.5126-2.5128zm26.401-13.454h-103.55v-10.969h103.55v10.969z" fill="url(#k)"/>
<path d="m9.2851 12.57c2.3629 0 4.2851-1.9222 4.2851-4.2851 0-2.3626-1.9222-4.2848-4.2851-4.2848-2.3629 0-4.2851 1.9222-4.2851 4.2848 0 2.3629 1.9222 4.2851 4.2851 4.2851zm0-5.347c0.58588 0 1.0624 0.47652 1.0624 1.0622 0 0.58566-0.47652 1.0624-1.0624 1.0624-0.58588 0-1.0624-0.47674-1.0624-1.0624 0-0.58588 0.47652-1.0622 1.0624-1.0622zm13 5.347c2.3629 0 4.2851-1.9222 4.2851-4.2851 2.148e-4 -2.3626-1.9222-4.2848-4.2851-4.2848s-4.2851 1.9222-4.2851 4.2848c0 2.3629 1.9222 4.2851 4.2851 4.2851zm0-5.347c0.58588 0 1.0624 0.47652 1.0624 1.0622 2.149e-4 0.58566-0.47631 1.0624-1.0624 1.0624-0.58588 0-1.0624-0.47674-1.0624-1.0624 0-0.58588 0.47652-1.0622 1.0624-1.0622zm12 5.347c2.3629 0 4.2851-1.9222 4.2851-4.2851 2.148e-4 -2.3626-1.9222-4.2848-4.2851-4.2848s-4.2851 1.9222-4.2851 4.2848c0 2.3629 1.9222 4.2851 4.2851 4.2851zm0-5.347c0.58588 0 1.0624 0.47652 1.0624 1.0622 2.149e-4 0.58566-0.47652 1.0624-1.0624 1.0624s-1.0624-0.47674-1.0624-1.0624c0-0.58588 0.47652-1.0622 1.0624-1.0622zm36 5.347h27.628c2.3629 0 4.2851-1.9222 4.2851-4.2851 0-0.65141-0.14287-1.2777-0.42453-1.8605-0.71049-1.4725-2.2258-2.4243-3.8607-2.4243h-27.628c-2.3629 0-4.2851 1.9222-4.2851 4.2848 0 2.3629 1.9222 4.2851 4.2851 4.2851zm0-5.347h27.628c0.41186 0 0.77902 0.23053 0.95842 0.60264 0.068965 0.14287 0.10398 0.29756 0.10398 0.45977 0 0.58545-0.47674 1.0622-1.0626 1.0622h-27.628c-0.58588 0-1.0624-0.47674-1.0624-1.0624 0-0.58588 0.47674-1.0622 1.0624-1.0622z" fill="url(#j)"/>
<rect transform="rotate(225.01 42.148 70.148)" x="40.536" y="68.721" width="3.223" height="2.854" fill="url(#i)"/>
<polygon points="32.345 78.067 31.279 77.001 29 79.28 32.345 82.625 39.691 75.279 37.412 73" fill="url(#h)"/>
</svg>
